X:1
T:John Diamond's Hornpipe
M:C|
L:1/8
B:Köhler’s Violin Repository (1881-1885, p. 189)
Z:AK/Fiddler's Companion
K:D
A,2 DE F2 ED|(FA)AB A4|{c}BAcA dBAF|{F}EDEF FDA,A,|
(A,D)DE F2 ED|(FA)AB A4|Bdce dBAF|E2D2D2:|
|:[D6A6f6] (3gfe|dfed {c}BABc|d4 {e}(dc)dc|fded BcdB|
{B}(A^G)AB AFED|{e}dcde fgef|dcdB AFdB|(AF)EF D2z2:|]

